X:1
T:Title
%%score { ( 1 4 ) | ( 2 3 ) }
L:1/8
Q:1/4=100
M:9/8
K:Eb
V:1 treble nm="Grand Piano"
V:4 treble 
V:2 bass 
V:3 bass 
V:1
 [CE][=B,D][CE] [Ec]3 [EA]3 | [FA][=EG][FA] [_DF]6 | [CE][=B,D][CE] [CA]3 [Ec]3 | cBA B6 | %4
w: F.~S.~Shephard * * * *||||
 c=Bc e3 c3 | cB[EA] [_DF]3 [FA]GF | E2 c c3 B3 | [A,CA]6- [A,CA]2 z | z3 [F_d]6 | z3 [Ec]6 | %10
w: ||||||
 z3 e6 | cBA B6 | [CE][=B,D][CE] [Ec]3 [Ec]3 |[M:21/16] e_d/-d/[Ec][_DF]3/2- [DF]3 [FA]G/-G/F | %14
w: ||||
[M:9/8] E2 c c3 B3 | [CA]6- [CA]2 z |] %16
w: ||
V:2
 [A,,A,]2 [A,,A,] [A,,A,]3 [C,A,]3 | [_D,A,]2 [D,A,] [D,A,]6 | [A,,A,]2 [A,,A,] [A,,E,]3 [A,,A,]3 | %3
 [F,A,D]2 [E,B,D] [E,G,E]6 | .E3 z3 z3 | [A,,A,][B,,G,][C,A,] [_D,A,]3 z E[D,A,_D] | %6
 [E,A,C]2 [E,A,E] [E,A,E]3 [E,G,_D]3 | A,,6- A,,2 z | F=EF[K:bass] [_D,A,]2 D, D,2 [D,A,_D] | %9
 z CC [A,,A,]2 A,, A,,3 | EDE E2- [A,E-] [A,E]2[K:bass] [A,E] | [F,A,D]2 [F,B,D] [E,G,_D]6 | %12
 [A,,A,]2 [A,,A,] [A,,A,]3 [A,,A,]3 |[M:21/16] E->E z z3/2 z3 .[_D,A,]3 | %14
[M:9/8] [E,A,C]2 [E,A,E] [E,A,E]3 [E,G,_D]3 | [A,,A,]6- [A,,A,]2 z |] %16
V:3
 x9 | x9 | x9 | x9 | A,-[A,D][A,E] [A,CE]3 [A,E]3 | z3 z3 .[_D,A,]3 | x9 | x9 | x3[K:bass] x6 | %9
 [A,,A,]3 z3 z3 | z3 .[A,C]3 z3[K:bass] | x9 | x9 | %13
[M:21/16] [A,,C][B,,B,]/-[B,,B,]/[C,A,][_D,A,]3/2- [D,A,]3 z E/-E/[D,A,_D] |[M:9/8] x9 | x9 |] %16
V:4
 x9 | x9 | x9 | x9 | x9 | .E3 z3 z3 | x9 | x9 | AGA z2 A, A,2 F | [_DF]EA z2 A, A,3 | %10
 c=Bc z2 C C2 c | x9 | x9 |[M:21/16] x21/2 |[M:9/8] x9 | x9 |] %16

